public/stars.svg

<svg fill="none" height="26" viewBox="0 0 136 26" width="136" xmlns="http://www.w3.org/2000/svg"><g fill="#ffc700"><path d="m11.8991 2.60809c.2367-.72847 1.2672-.72847 1.5039 0l1.9109 5.88092c.1058.32578.4094.54635.752.54635h6.1835c.766 0 1.0844.98014.4648 1.43034l-5.0026 3.6346c-.2772.2014-.3931.5583-.2873.8841l1.9109 5.8809c.2366.7284-.5971 1.3342-1.2168.884l-5.0026-3.6346c-.2771-.2014-.6524-.2014-.9295 0l-5.00261 3.6346c-.61968.4502-1.45345-.1556-1.21675-.884l1.91082-5.8809c.10586-.3258-.0101-.6827-.28723-.8841l-5.00261-3.6346c-.61967-.4502-.3012-1.43034.46476-1.43034h6.18356c.34255 0 .64614-.22057.75199-.54635z"/><path d="m39.7454 2.60809c.2367-.72847 1.2673-.72847 1.504 0l1.9108 5.88092c.1059.32578.4095.54635.752.54635h6.1836c.7659 0 1.0844.98014.4647 1.43034l-5.0026 3.6346c-.2771.2014-.3931.5583-.2872.8841l1.9108 5.8809c.2367.7284-.5971 1.3342-1.2167.884l-5.0026-3.6346c-.2772-.2014-.6524-.2014-.9296 0l-5.0026 3.6346c-.6196.4502-1.4534-.1556-1.2167-.884l1.9108-5.8809c.1059-.3258-.0101-.6827-.2872-.8841l-5.0026-3.6346c-.6197-.4502-.3012-1.43034.4647-1.43034h6.1836c.3425 0 .6461-.22057.752-.54635z"/><path d="m67.1942 2.6898c.2322-.73772 1.2762-.73772 1.5084 0l1.8233 5.79227c.1036.3293.4089.55329.7542.55329h5.9521c.7598 0 1.0823.96734.4744 1.42324l-4.8581 3.6435c-.2684.2013-.3805.55-.2798.8699l1.8453 5.8627c.2307.7329-.6139 1.331-1.2286.87l-4.7626-3.5719c-.2811-.2108-.6676-.2108-.9488 0l-4.7626 3.5719c-.6147.461-1.4593-.1371-1.2286-.87l1.8454-5.8627c.1007-.3199-.0114-.6686-.2798-.8699l-4.8581-3.6435c-.6079-.4559-.2855-1.42324.4744-1.42324h5.9521c.3452 0 .6506-.22399.7542-.55329z"/><path d="m94.6475 2.60809c.2367-.72847 1.2673-.72847 1.504 0l1.9108 5.88092c.1058.32578.4094.54635.752.54635h6.1837c.766 0 1.084.98014.465 1.43034l-5.003 3.6346c-.277.2014-.393.5583-.287.8841l1.911 5.8809c.236.7284-.598 1.3342-1.217.884l-5.0028-3.6346c-.2771-.2014-.6524-.2014-.9295 0l-5.0026 3.6346c-.6197.4502-1.4534-.1556-1.2167-.884l1.9108-5.8809c.1058-.3258-.0101-.6827-.2873-.8841l-5.0026-3.6346c-.6196-.4502-.3012-1.43034.4648-1.43034h6.1836c.3425 0 .6461-.22057.7519-.54635z"/><path d="m122.494 2.60809c.237-.72847 1.267-.72847 1.504 0l1.911 5.88092c.106.32578.409.54635.752.54635h6.183c.766 0 1.085.98014.465 1.43034l-5.003 3.6346c-.277.2014-.393.5583-.287.8841l1.911 5.8809c.237.7284-.597 1.3342-1.217.884l-5.002-3.6346c-.278-.2014-.653-.2014-.93 0l-5.003 3.6346c-.619.4502-1.453-.1556-1.216-.884l1.911-5.8809c.105-.3258-.011-.6827-.288-.8841l-5.002-3.6346c-.62-.4502-.301-1.43034.464-1.43034h6.184c.343 0 .646-.22057.752-.54635z"/></g></svg>

<svg width="136" height="26" viewBox="0 0 136 26" fill="none" xmlns="http://www.w3.org/2000/svg">
<path d="M11.8991 2.60809C12.1358 1.87962 13.1663 1.87962 13.403 2.60809L15.3139 8.48901C15.4197 8.81479 15.7233 9.03536 16.0659 9.03536H22.2494C23.0154 9.03536 23.3338 10.0155 22.7142 10.4657L17.7116 14.1003C17.4344 14.3017 17.3185 14.6586 17.4243 14.9844L19.3352 20.8653C19.5718 21.5937 18.7381 22.1995 18.1184 21.7493L13.1158 18.1147C12.8387 17.9133 12.4634 17.9133 12.1863 18.1147L7.18369 21.7493C6.56401 22.1995 5.73024 21.5937 5.96694 20.8653L7.87776 14.9844C7.98362 14.6586 7.86766 14.3017 7.59053 14.1003L2.58792 10.4657C1.96825 10.0155 2.28672 9.03536 3.05268 9.03536H9.23624C9.57879 9.03536 9.88238 8.81479 9.98823 8.48901L11.8991 2.60809Z" fill="#FFC700"/>
<path d="M39.7454 2.60809C39.9821 1.87962 41.0127 1.87962 41.2494 2.60809L43.1602 8.48901C43.2661 8.81479 43.5697 9.03536 43.9122 9.03536H50.0958C50.8617 9.03536 51.1802 10.0155 50.5605 10.4657L45.5579 14.1003C45.2808 14.3017 45.1648 14.6586 45.2707 14.9844L47.1815 20.8653C47.4182 21.5937 46.5844 22.1995 45.9648 21.7493L40.9622 18.1147C40.685 17.9133 40.3098 17.9133 40.0326 18.1147L35.03 21.7493C34.4104 22.1995 33.5766 21.5937 33.8133 20.8653L35.7241 14.9844C35.83 14.6586 35.714 14.3017 35.4369 14.1003L30.4343 10.4657C29.8146 10.0155 30.1331 9.03536 30.899 9.03536H37.0826C37.4251 9.03536 37.7287 8.81479 37.8346 8.48901L39.7454 2.60809Z" fill="#FFC700"/>
<path d="M67.1942 2.6898C67.4264 1.95208 68.4704 1.95208 68.7026 2.6898L70.5259 8.48207C70.6295 8.81137 70.9348 9.03536 71.2801 9.03536H77.2322C77.992 9.03536 78.3145 10.0027 77.7066 10.4586L72.8485 14.1021C72.5801 14.3034 72.468 14.6521 72.5687 14.972L74.414 20.8347C74.6447 21.5676 73.8001 22.1657 73.1854 21.7047L68.4228 18.1328C68.1417 17.922 67.7552 17.922 67.474 18.1328L62.7114 21.7047C62.0967 22.1657 61.2521 21.5676 61.4828 20.8347L63.3282 14.972C63.4289 14.6521 63.3168 14.3034 63.0484 14.1021L58.1903 10.4586C57.5824 10.0027 57.9048 9.03536 58.6647 9.03536H64.6168C64.962 9.03536 65.2674 8.81137 65.371 8.48207L67.1942 2.6898Z" fill="#FFC700"/>
<path d="M94.6475 2.60809C94.8842 1.87962 95.9148 1.87962 96.1515 2.60809L98.0623 8.48901C98.1681 8.81479 98.4717 9.03536 98.8143 9.03536H104.998C105.764 9.03536 106.082 10.0155 105.463 10.4657L100.46 14.1003C100.183 14.3017 100.067 14.6586 100.173 14.9844L102.084 20.8653C102.32 21.5937 101.486 22.1995 100.867 21.7493L95.8642 18.1147C95.5871 17.9133 95.2118 17.9133 94.9347 18.1147L89.9321 21.7493C89.3124 22.1995 88.4787 21.5937 88.7154 20.8653L90.6262 14.9844C90.732 14.6586 90.6161 14.3017 90.3389 14.1003L85.3363 10.4657C84.7167 10.0155 85.0351 9.03536 85.8011 9.03536H91.9847C92.3272 9.03536 92.6308 8.81479 92.7366 8.48901L94.6475 2.60809Z" fill="#FFC700"/>
<path d="M122.494 2.60809C122.731 1.87962 123.761 1.87962 123.998 2.60809L125.909 8.48901C126.015 8.81479 126.318 9.03536 126.661 9.03536H132.844C133.61 9.03536 133.929 10.0155 133.309 10.4657L128.306 14.1003C128.029 14.3017 127.913 14.6586 128.019 14.9844L129.93 20.8653C130.167 21.5937 129.333 22.1995 128.713 21.7493L123.711 18.1147C123.433 17.9133 123.058 17.9133 122.781 18.1147L117.778 21.7493C117.159 22.1995 116.325 21.5937 116.562 20.8653L118.473 14.9844C118.578 14.6586 118.462 14.3017 118.185 14.1003L113.183 10.4657C112.563 10.0155 112.882 9.03536 113.647 9.03536H119.831C120.174 9.03536 120.477 8.81479 120.583 8.48901L122.494 2.60809Z" fill="#FFC700"/>
</svg>
